assets/images/logo-nivea-light.svg

<svg fill="none" height="499" viewBox="0 0 498 499" width="498" xmlns="http://www.w3.org/2000/svg"><path clip-rule="evenodd" d="m455.805 387.477c27.321-40.895 41.904-88.974 41.904-138.156 0-137.35-111.34-248.699906-248.7-248.699906-49.189 0-97.274 14.586506-138.173 41.914906-40.8986 27.3284-72.7751 66.171-91.598 111.616-18.822978 45.446-23.7469 95.452-14.14913 143.695 9.59773 48.244 33.28613 92.558 68.06943 127.339 34.7837 34.78 79.0997 58.465 127.3437 68.059s98.25 4.666 143.694-14.161c45.444-18.826 84.284-50.706 111.609-91.607zm-143.563-158.267h26.08v-21.06h-53.17v82.97h53.17v-21.67h-26.08v-12.91h26.08v-15.72l-26.08.02zm82.674-27.891c-16.82 29.67-49.9 89.8-49.9 89.8h28.35l4.6-9.03h33.86l4.48 9.03h28.55zm-10.38 67.06c.058-.06 10.38-21.28 10.38-21.28s10.123 21.22 10.18 21.28zm-132.753-60.228-18.6 37.18c-1.47-2.59-18.51-37.18-18.51-37.18h-28.94l47.45 89.14s47.62-89.14 47.52-89.14zm-97.61 82.98h27.11l.01-.01v-82.97c0 .1-27.12 0-27.12 0zm-51.64-82.99v32.11l-44.0799-38.39v89.26h27.16v-32.14l44.0399 38.31v-89.15z" fill="#fff" fill-rule="evenodd"/></svg>

<svg width="498" height="499" viewBox="0 0 498 499" fill="none" xmlns="http://www.w3.org/2000/svg">
<path fill-rule="evenodd" clip-rule="evenodd" d="M455.805 387.477C483.126 346.582 497.709 298.503 497.709 249.321C497.709 111.971 386.369 0.621094 249.009 0.621094C199.82 0.621094 151.735 15.2076 110.836 42.536C69.9374 69.8644 38.0609 108.707 19.238 154.152C0.415022 199.598 -4.5089 249.604 5.08887 297.847C14.6866 346.091 38.375 390.405 73.1583 425.186C107.942 459.966 152.258 483.651 200.502 493.245C248.746 502.839 298.752 497.911 344.196 479.084C389.64 460.258 428.48 428.378 455.805 387.477ZM312.242 229.21H338.322V208.15H285.152V291.12H338.322V269.45H312.242V256.54H338.322V240.82L312.242 240.84V229.21ZM394.916 201.319C378.096 230.989 345.016 291.119 345.016 291.119H373.366L377.966 282.089H411.826L416.306 291.119H444.856L394.916 201.319ZM384.536 268.379C384.594 268.319 394.916 247.099 394.916 247.099C394.916 247.099 405.039 268.319 405.096 268.379H384.536ZM251.783 208.151L233.183 245.331C231.713 242.741 214.673 208.151 214.673 208.151H185.733L233.183 297.291C233.183 297.291 280.803 208.151 280.703 208.151H251.783ZM154.173 291.131H181.283L181.293 291.121V208.151C181.293 208.251 154.173 208.151 154.173 208.151V291.131ZM102.533 208.141V240.251L58.4531 201.861V291.121H85.6131V258.981L129.653 297.291V208.141H102.533Z" fill="white"/>
</svg>
